packages/Snapp/src/AdminIcon/index.svg

<?xml version="1.0" encoding="UTF-8"?>
<svg width="24px" height="24px" viewBox="0 0 24 24" version="1.1" xmlns="http://www.w3.org/2000/svg" xmlns:xlink="http://www.w3.org/1999/xlink">
    <title>Icons/24/Admin</title>
    <g id="Icons/24/Admin" stroke="none" stroke-width="1" fill="none" fill-rule="evenodd">
        <rect id="Container" fill-opacity="0" fill="#D8D8D8" fill-rule="nonzero" x="0" y="0" width="24" height="24"></rect>
        <path d="M9,16 L9,16 C7.34314575,16 6,17.3431458 6,19 L6,21 C6,21.5522847 5.55228475,22 5,22 C4.44771525,22 4,21.5522847 4,21 L4,19 C4,16.2385763 6.23857625,14 9,14 L9.59308001,14.0000594 C9.25736081,14.5382722 9,15.1940144 9,16 Z M17.0274713,12 C17.1506118,12 17.2634906,12.09 17.2737523,12.21 L17.2737523,12.21 L17.4687248,13.53 C17.7868377,13.65 18.0741656,13.82 18.34097,14.02 L18.34097,14.02 L19.6134219,13.52 C19.7365624,13.48 19.8699647,13.52 19.9315349,13.63 L19.9315349,13.63 L20.9577058,15.36 C21.0192761,15.47 20.9884909,15.6 20.8961355,15.68 L20.8961355,15.68 L19.8083944,16.51 C19.8391795,16.67 19.8494412,16.83 19.8494412,17 C19.8494412,17.17 19.8289178,17.33 19.8083944,17.49 L19.8083944,17.49 L20.9063973,18.32 C20.9987526,18.4 21.0295378,18.53 20.9679675,18.64 L20.9679675,18.64 L19.9417966,20.37 C19.8699647,20.48 19.7365624,20.52 19.6236836,20.48 L19.6236836,20.48 L18.34097,19.98 C18.0844273,20.18 17.7868377,20.34 17.4789865,20.47 L17.4789865,20.47 L17.284014,21.79 C17.2634906,21.91 17.1506118,22 17.0274713,22 L17.0274713,22 L14.9751295,22 C14.8417273,22 14.7391102,21.91 14.7185868,21.79 L14.7185868,21.79 L14.5236143,20.47 C14.2055013,20.35 13.9181735,20.18 13.651369,19.98 L13.651369,19.98 L12.3789171,20.48 C12.2557766,20.52 12.1223744,20.48 12.0608042,20.37 L12.0608042,20.37 L11.0346333,18.64 C10.973063,18.53 11.0038481,18.4 11.0962035,18.32 L11.0962035,18.32 L12.1839447,17.49 C12.1634212,17.33 12.1531595,17.17 12.1531595,17 C12.1531595,16.83 12.1634212,16.67 12.1839447,16.51 L12.1839447,16.51 L11.0962035,15.68 C10.9935864,15.6 10.973063,15.47 11.0346333,15.36 L11.0346333,15.36 L12.0608042,13.63 C12.1326361,13.52 12.2660383,13.48 12.3789171,13.52 L12.3789171,13.52 L13.651369,14.02 C13.9181735,13.82 14.215763,13.66 14.5236143,13.53 L14.5236143,13.53 L14.7185868,12.21 C14.7391102,12.09 14.851989,12 14.9751295,12 L14.9751295,12 Z M16,15 C14.8933333,15 14,15.8933333 14,17 C14,18.1066667 14.8933333,19 16,19 C17.1066667,19 18,18.1066667 18,17 C18,15.8933333 17.1066667,15 16,15 Z M12,2 C14.7614237,2 17,4.23857625 17,7 C17,9.76142375 14.7614237,12 12,12 C9.23857625,12 7,9.76142375 7,7 C7,4.23857625 9.23857625,2 12,2 Z M12,4 C10.3431458,4 9,5.34314575 9,7 C9,8.65685425 10.3431458,10 12,10 C13.6568542,10 15,8.65685425 15,7 C15,5.34314575 13.6568542,4 12,4 Z" id="Combined-Shape" fill="#404040"></path>
    </g>
</svg>

<svg viewBox="0 0 24 24" xmlns="http://www.w3.org/2000/svg" fill="currentColor" focusable="false">
  <g fill-rule="evenodd">
    <path d="M0 0h24v24H0z"/>
    <path d="M9 16a3 3 0 00-3 3v2a1 1 0 01-2 0v-2a5 5 0 015-5h.593A3.705 3.705 0 009 16zm8.027-4c.124 0 .236.09.247.21l.195 1.32c.318.12.605.29.872.49l1.272-.5c.124-.04.257 0 .319.11l1.026 1.73c.061.11.03.24-.062.32l-1.088.83c.031.16.041.32.041.49 0 .17-.02.33-.04.49l1.097.83c.093.08.124.21.062.32l-1.026 1.73c-.072.11-.205.15-.318.11l-1.283-.5c-.257.2-.554.36-.862.49l-.195 1.32a.262.262 0 01-.257.21h-2.052a.254.254 0 01-.256-.21l-.195-1.32a3.534 3.534 0 01-.873-.49l-1.272.5c-.123.04-.257 0-.318-.11l-1.026-1.73a.255.255 0 01.061-.32l1.088-.83a3.81 3.81 0 010-.98l-1.088-.83a.243.243 0 01-.061-.32l1.026-1.73c.072-.11.205-.15.318-.11l1.272.5c.267-.2.565-.36.873-.49l.195-1.32a.26.26 0 01.256-.21zM16 15c-1.107 0-2 .893-2 2s.893 2 2 2 2-.893 2-2-.893-2-2-2zM12 2a5 5 0 110 10 5 5 0 010-10zm0 2a3 3 0 100 6 3 3 0 000-6z"/>
  </g>
</svg>
